X: 032
T: We'll be married this Year
%R: march, reel
Z: 2014 John Chambers <jc:trillian.mit.edu>
B: Thompson "Twenty four Country Dances for the Year 1805" p.3 #2
F: http://folkopedia.efdss.org/images/2/2a/Thompson_24_1805.PDF 2014-8-13
M: 2/4
L: 1/8
K: G
|:\
ddBd | ggeg | dd c/B/A/G/ | FAFD |\
ddBd | ggeg | fd f/e/d/^c/ | d>ed2 :|
|:\
aafa | d'd'bg | c'/d'/e'/d'/ c'/b/a/g/ | fafd |\
ddBd | ggeg | d/e/d/c/ B/c/B/A/ | GgG2 :|
% - - - - - - - - - - - - - - - - - - - - - - - - -
%%begintext align
%% 1st & 2d Cu: hands across back again,
%% lead down the middle up again, right &
%% left at top.
%%endtext
% - - - - - - - - - - - - - - - - - - - - - - - - -
